svg/fluentui-system-icons/ic_fluent_center_horizontal_24_regular.svg

<svg width="24" height="24" viewBox="0 0 24 24" fill="none" xmlns="http://www.w3.org/2000/svg">
<path d="M4.5 3.75C4.5 3.33579 4.16421 3 3.75 3C3.33579 3 3 3.33579 3 3.75V20.25C3 20.6642 3.33579 21 3.75 21C4.16421 21 4.5 20.6642 4.5 20.25V3.75ZM19.5 3.75C19.5 3.33579 19.8358 3 20.25 3C20.6642 3 21 3.33579 21 3.75V20.25C21 20.6642 20.6642 21 20.25 21C19.8358 21 19.5 20.6642 19.5 20.25V3.75ZM10.25 5C9.00736 5 8 6.00736 8 7.25V16.75C8 17.9926 9.00736 19 10.25 19H13.75C14.9926 19 16 17.9926 16 16.75V7.25C16 6.00736 14.9926 5 13.75 5H10.25ZM9.5 7.25C9.5 6.83579 9.83579 6.5 10.25 6.5H13.75C14.1642 6.5 14.5 6.83579 14.5 7.25V16.75C14.5 17.1642 14.1642 17.5 13.75 17.5H10.25C9.83579 17.5 9.5 17.1642 9.5 16.75V7.25Z" fill="#212121"/>
</svg>

<svg xmlns="http://www.w3.org/2000/svg" width="24" height="24"><path d="M4.5 3.75a.75.75 0 0 0-1.5 0v16.5a.75.75 0 0 0 1.5 0V3.75Zm15 0a.75.75 0 0 1 1.5 0v16.5a.75.75 0 0 1-1.5 0V3.75ZM10.25 5A2.25 2.25 0 0 0 8 7.25v9.5A2.25 2.25 0 0 0 10.25 19h3.5A2.25 2.25 0 0 0 16 16.75v-9.5A2.25 2.25 0 0 0 13.75 5h-3.5ZM9.5 7.25a.75.75 0 0 1 .75-.75h3.5a.75.75 0 0 1 .75.75v9.5a.75.75 0 0 1-.75.75h-3.5a.75.75 0 0 1-.75-.75v-9.5Z"/></svg>
